resources/AirPollution-SVG/pollution_suvside.svg

<svg height="15.875" width="41.539" xmlns="http://www.w3.org/2000/svg"><g transform="translate(-279.23 -172.063)"><path d="M320.771 186.968c.006.355-9.291.764-20.762.914-11.472.148-20.774-.018-20.779-.373-.001-.154 2.718-1.255 5.638-1.405 3.807-.194 7.217-.152 13.71-.237 6.932-.09 12.699-.155 16.475-.042 2.471.075 5.718 1.003 5.718 1.143z" fill="#515251"/><path d="M299.646 173.181s.995-.827 1.284-.857c.291-.029 1.792-.123 2.53-.13.737-.008 8.514-.188 8.884-.112.368.075.796.651.823.757l-.711.006s-.108-.395-.399-.418c-.291-.023-11.071.187-11.071.187l-.312.504-1.028.063z" fill="#262626"/><circle r="3.194" cy="183.319" cx="287.779" fill="#262626"/><circle r="3.195" cy="183.01" cx="308.932" fill="#262626"/><path d="M318.649 182.66s-.402.931-1.687 1.098-7.249.945-10.592 1.236c-3.345.289-6.484.166-7.154.121l-1.187-.401-2.78.079s-4.425.146-5.303-.052c-.877-.198-7.511.485-7.931-.489 0 0 .841-3.507 2.484-3.884 1.643-.376 4.623-.92 5.353 0 .729.919 1.37 3.332 1.37 3.332l14.047-.549s.643-2.889 2.183-3.264c1.54-.375 4.161-.916 5.3-.103 1.141.813 1.367 2.87 1.367 2.87s4.376-.043 4.53.006z" fill="#262626"/><circle r="3.194" cy="184.283" cx="310.386" fill="#262626"/><circle r="2.242" cy="184.282" cx="310.399" fill="#EAEAEA"/><circle r=".148" cy="183.887" cx="310.386"/><circle r=".148" cy="184.678" cx="310.414"/><circle r=".148" cy="184.296" cx="310.005"/><circle r=".148" cy="184.269" cx="310.794"/><path d="M309.326 182.569l.821.899-.067-1.19zm1.415 3.717l-.027-1.217.773.908zm-2.357-1.921l1.189-.261-1.064-.538zm3.928.633l-1.069-.584 1.172-.217zm-2.844 1.08l.369-1.161-.996.655zm2.511-3.084l-1.039.632.398-1.123z"/><circle r="3.194" cy="184.359" cx="286.605" fill="#262626"/><circle r="2.243" cy="184.359" cx="286.619" fill="#EAEAEA"/><circle r=".147" cy="183.964" cx="286.606"/><circle r=".148" cy="184.754" cx="286.633"/><circle r=".148" cy="184.373" cx="286.224"/><circle r=".148" cy="184.344" cx="287.015"/><path d="M285.545 182.646l.822.898-.068-1.19zm1.417 3.717l-.028-1.217.773.906zm-2.358-1.923l1.189-.26-1.065-.536zm3.927.634l-1.067-.585 1.171-.216zm-2.843 1.081l.369-1.161-.997.653zm2.51-3.087l-1.039.634.399-1.122z"/><path d="M314.163 183.109s4.479-.281 4.584-.387c.104-.107.299-1.927.186-2.639 0 0-.795-.334-.795-.413s.152-.608.146-1.268c-.007-.658-.63-2.34-.979-3.18-.351-.84-1.019-1.731-1.019-1.731s.417-.478.521-.479c0 0-.107-.368-.53-.391-.422-.022-.977-.043-1.317.119l-3.19-.049c-1.08-.016-11.333.321-14.438.588 0 0-1.03.089-1.896.44-.866.352-4.529 3.208-4.529 3.208l-5.294.5-.76.456s-3.289.665-3.735.933c-.445.268-.78 1.009-.719 1.958 0 0-.788.22-.918.483-.129.265-.004 2.162.262 2.423.267.261 1.06.517 1.06.517l1.133-.038.872.255s.087-1.899.867-3.04c.779-1.142 2.52-1.158 3.126-1.138.605.021 2.003-.125 2.484.713.483.839 1.235 2.203 1.219 3.231 0 0 2.005.139 3.428.125 1.424-.014 6.379-.22 7.01-.226.633-.006 5.014.373 5.248.133.235-.24.354-1.532.662-2.274.311-.74.773-1.905 2.195-2.208 1.42-.305 2.501-.315 3.293.047.797.361 1.359 1.463 1.523 2.067l.3 1.265z" fill="#B55527"/><path d="M308.806 173.267c-.108-.003-.229.214-.121.3.105.088 3.363 2.393 3.683 2.882 0 0 .828.045 1.335.041.512-.005 2.62-.062 2.742-.098.123-.036.352-.057.242-.407-.109-.351-.955-2.434-1.837-2.707 0 0-4.551.027-6.044-.011z" fill="#B1B0B1"/><path d="M306.501 173.271c.125-.002.468.498.822.986.357.488 1.34 2.525 1.323 2.614-.017.087-10.031.519-10.927.528-.896.008-5.991.269-5.991.269s.084-.441.361-.777c.278-.336 1.726-1.651 2.073-1.935.61-.499 2.202-1.252 3.168-1.384.965-.132 2.545-.237 3.547-.246l5.624-.055z" fill="#262626"/><path d="M306.47 173.518s.855.926 1.41 2.254c.291.698.309.981.309.981l-15.389.729s.511-1.657 1.438-2.263c.924-.606 2.431-1.306 3.553-1.458 1.807-.247 8.679-.243 8.679-.243z" fill="#B1B0B1"/><path d="M292.845 175.882s-.655.401-.597.902c.058.5.141.868.141.868l.5-.005.025-.157s.708-.324.812-.351c.106-.027.097-1.003-.012-1.318-.109-.315-.869.061-.869.061z" fill="#B55527"/><path d="M300.477 173.45s-.41 3.631-.423 3.731h1.391s-.012-1.19.041-1.663c.055-.474.211-1.952.211-1.952l-1.22-.116zm5.576-.069l-.21 3.543.187-.001.182-3.543z" fill="#262626"/><path d="M298.512 177.799c-.118.039-.052.588.063.702.116.113.934.063 1.089-.01.157-.074.254-.633-.05-.788-.302-.156-.831.008-1.102.096z" fill="#5A412F"/><path d="M298.356 177.958s2.062-.107 2.062.023c.002.129-.082.258-.384.276-.3.017-1.547.058-1.662.002s-.115-.257-.016-.301z" fill="#D36D3E"/><path d="M306.206 177.38c-.117.038-.051.587.064.702.116.112.934.062 1.09-.011.158-.073.252-.633-.05-.788-.303-.154-.831.008-1.104.097z" fill="#5A412F"/><path d="M306.05 177.539s2.064-.106 2.066.023c.001.129-.084.259-.385.276-.301.018-1.549.058-1.664.002s-.117-.257-.017-.301z" fill="#D36D3E"/><path d="M317.208 176.331s.25 1.209.072 1.792c-.18.581-.357 1.215-.357 1.215l1.316-.013s.095-1.108-.018-1.793c-.111-.684-.406-1.156-.406-1.156l-.607-.045z" fill="#D84828"/><path d="M281.184 178.946c-.229.14-.777 1.207-.549 1.34.089.052.452.104.697-.004.245-.107.661-.691 1.012-.871.35-.179.732-.429.626-.657-.108-.227-1.263-.129-1.786.192z" fill="#EAEAEA"/></g></svg>

<svg height="15.875" width="41.5390625" xmlns="http://www.w3.org/2000/svg"><g transform="translate(-279.23046875 -172.0625)"><path d="M320.771 186.968c.006.355-9.291.764-20.762.914-11.472.148-20.774-.018-20.779-.373-.001-.154 2.718-1.255 5.638-1.405 3.807-.194 7.217-.152 13.71-.237 6.932-.09 12.699-.155 16.475-.042 2.471.075 5.718 1.003 5.718 1.143z" fill="#515251"/><path d="M299.646 173.181s.995-.827 1.284-.857c.291-.029 1.792-.123 2.53-.13.737-.008 8.514-.188 8.884-.112.368.075.796.651.823.757l-.711.006s-.108-.395-.399-.418c-.291-.023-11.071.187-11.071.187l-.312.504-1.028.063z" fill="#262626"/><circle r="3.194" cy="183.319" cx="287.779" fill="#262626"/><circle r="3.195" cy="183.01" cx="308.932" fill="#262626"/><path d="M318.649 182.66s-.402.931-1.687 1.098-7.249.945-10.592 1.236c-3.345.289-6.484.166-7.154.121l-1.187-.401-2.78.079s-4.425.146-5.303-.052c-.877-.198-7.511.485-7.931-.489 0 0 .841-3.507 2.484-3.884 1.643-.376 4.623-.92 5.353 0 .729.919 1.37 3.332 1.37 3.332l14.047-.549s.643-2.889 2.183-3.264c1.54-.375 4.161-.916 5.3-.103 1.141.813 1.367 2.87 1.367 2.87s4.376-.043 4.53.006z" fill="#262626"/><circle r="3.194" cy="184.283" cx="310.386" fill="#262626"/><circle r="2.242" cy="184.282" cx="310.399" fill="#EAEAEA"/><circle r=".148" cy="183.887" cx="310.386"/><circle r=".148" cy="184.678" cx="310.414"/><circle r=".148" cy="184.296" cx="310.005"/><circle r=".148" cy="184.269" cx="310.794"/><path d="M309.326 182.569l.821.899-.067-1.19zM310.741 186.286l-.027-1.217.773.908zM308.384 184.365l1.189-.261-1.064-.538zM312.312 184.998l-1.069-.584 1.172-.217zM309.468 186.078l.369-1.161-.996.655zM311.979 182.994l-1.039.632.398-1.123z"/><circle r="3.194" cy="184.359" cx="286.605" fill="#262626"/><circle r="2.243" cy="184.359" cx="286.619" fill="#EAEAEA"/><circle r=".147" cy="183.964" cx="286.606"/><circle r=".148" cy="184.754" cx="286.633"/><circle r=".148" cy="184.373" cx="286.224"/><circle r=".148" cy="184.344" cx="287.015"/><path d="M285.545 182.646l.822.898-.068-1.19zM286.962 186.363l-.028-1.217.773.906zM284.604 184.44l1.189-.26-1.065-.536zM288.531 185.074l-1.067-.585 1.171-.216zM285.688 186.155l.369-1.161-.997.653zM288.198 183.068l-1.039.634.399-1.122z"/><path d="M314.163 183.109s4.479-.281 4.584-.387c.104-.107.299-1.927.186-2.639 0 0-.795-.334-.795-.413s.152-.608.146-1.268c-.007-.658-.63-2.34-.979-3.18-.351-.84-1.019-1.731-1.019-1.731s.417-.478.521-.479c0 0-.107-.368-.53-.391-.422-.022-.977-.043-1.317.119l-3.19-.049c-1.08-.016-11.333.321-14.438.588 0 0-1.03.089-1.896.44-.866.352-4.529 3.208-4.529 3.208l-5.294.5-.76.456s-3.289.665-3.735.933c-.445.268-.78 1.009-.719 1.958 0 0-.788.22-.918.483-.129.265-.004 2.162.262 2.423.267.261 1.06.517 1.06.517l1.133-.038.872.255s.087-1.899.867-3.04c.779-1.142 2.52-1.158 3.126-1.138.605.021 2.003-.125 2.484.713.483.839 1.235 2.203 1.219 3.231 0 0 2.005.139 3.428.125 1.424-.014 6.379-.22 7.01-.226.633-.006 5.014.373 5.248.133.235-.24.354-1.532.662-2.274.311-.74.773-1.905 2.195-2.208 1.42-.305 2.501-.315 3.293.047.797.361 1.359 1.463 1.523 2.067l.3 1.265z" fill="#B55527"/><path d="M308.806 173.267c-.108-.003-.229.214-.121.3.105.088 3.363 2.393 3.683 2.882 0 0 .828.045 1.335.041.512-.005 2.62-.062 2.742-.098.123-.036.352-.057.242-.407-.109-.351-.955-2.434-1.837-2.707 0 0-4.551.027-6.044-.011z" fill="#B1B0B1"/><path d="M306.501 173.271c.125-.002.468.498.822.986.357.488 1.34 2.525 1.323 2.614-.017.087-10.031.519-10.927.528-.896.008-5.991.269-5.991.269s.084-.441.361-.777c.278-.336 1.726-1.651 2.073-1.935.61-.499 2.202-1.252 3.168-1.384.965-.132 2.545-.237 3.547-.246l5.624-.055z" fill="#262626"/><path d="M306.47 173.518s.855.926 1.41 2.254c.291.698.309.981.309.981l-15.389.729s.511-1.657 1.438-2.263c.924-.606 2.431-1.306 3.553-1.458 1.807-.247 8.679-.243 8.679-.243z" fill="#B1B0B1"/><path d="M292.845 175.882s-.655.401-.597.902c.058.5.141.868.141.868l.5-.005.025-.157s.708-.324.812-.351c.106-.027.097-1.003-.012-1.318-.109-.315-.869.061-.869.061z" fill="#B55527"/><path d="M300.477 173.45s-.41 3.631-.423 3.731h1.391s-.012-1.19.041-1.663c.055-.474.211-1.952.211-1.952l-1.22-.116zM306.053 173.381l-.21 3.543.187-.001.182-3.543z" fill="#262626"/><path d="M298.512 177.799c-.118.039-.052.588.063.702.116.113.934.063 1.089-.01.157-.074.254-.633-.05-.788-.302-.156-.831.008-1.102.096z" fill="#5A412F"/><path d="M298.356 177.958s2.062-.107 2.062.023c.002.129-.082.258-.384.276-.3.017-1.547.058-1.662.002s-.115-.257-.016-.301z" fill="#D36D3E"/><path d="M306.206 177.38c-.117.038-.051.587.064.702.116.112.934.062 1.09-.011.158-.073.252-.633-.05-.788-.303-.154-.831.008-1.104.097z" fill="#5A412F"/><path d="M306.05 177.539s2.064-.106 2.066.023c.001.129-.084.259-.385.276-.301.018-1.549.058-1.664.002s-.117-.257-.017-.301z" fill="#D36D3E"/><path d="M317.208 176.331s.25 1.209.072 1.792c-.18.581-.357 1.215-.357 1.215l1.316-.013s.095-1.108-.018-1.793c-.111-.684-.406-1.156-.406-1.156l-.607-.045z" fill="#D84828"/><path d="M281.184 178.946c-.229.14-.777 1.207-.549 1.34.089.052.452.104.697-.004.245-.107.661-.691 1.012-.871.35-.179.732-.429.626-.657-.108-.227-1.263-.129-1.786.192z" fill="#EAEAEA"/></g></svg>
